Assets/Icons/expression/exclamation-triangle.svg

<svg enable-background="new 0 0 60 60" viewBox="0 0 60 60" xmlns="http://www.w3.org/2000/svg"><path d="m57.91 52.53-26.16-47.46c-.76-1.38-2.74-1.38-3.5 0l-26.16 47.46c-.73 1.33.23 2.97 1.75 2.97h52.31c1.53 0 2.49-1.63 1.76-2.97zm-52.37-.03 24.46-44.39 24.46 44.39z"/><path d="m27.52 24.3c-.1.1-.14.25-.14.47 0 .07.04 1.43.13 4.09.08 2.65.21 6.58.38 11.79 0 .19.06.34.18.45s.28.16.47.16h2.95c.19 0 .35-.05.47-.16s.18-.26.18-.45c.17-5.21.29-9.14.38-11.79.08-2.65.13-4.01.13-4.09 0-.22-.05-.37-.14-.47-.1-.1-.24-.14-.43-.14h-4.1c-.22 0-.37.05-.46.14z"/><path d="m29.96 43.71c-.82 0-1.48.26-2 .79s-.77 1.21-.77 2.05c0 .82.26 1.48.77 2s1.18.77 2 .77c.84 0 1.52-.25 2.05-.76.53-.5.79-1.18.79-2.02s-.26-1.52-.79-2.05c-.52-.52-1.21-.78-2.05-.78z"/></svg>

<?xml version="1.0" encoding="utf-8"?>
<!-- Generator: Adobe Illustrator 21.1.0, SVG Export Plug-In . SVG Version: 6.00 Build 0)  -->
<svg version="1.1" id="eps" xmlns="http://www.w3.org/2000/svg" xmlns:xlink="http://www.w3.org/1999/xlink" x="0px" y="0px"
	 viewBox="0 0 60 60" style="enable-background:new 0 0 60 60;" xml:space="preserve">
<g>
	<path d="M57.91,52.53L31.75,5.07c-0.76-1.38-2.74-1.38-3.5,0L2.09,52.53c-0.73,1.33,0.23,2.97,1.75,2.97h52.31
		C57.68,55.5,58.64,53.87,57.91,52.53z M5.54,52.5L30,8.11L54.46,52.5H5.54z"/>
	<path d="M27.52,24.3c-0.1,0.1-0.14,0.25-0.14,0.47c0,0.07,0.04,1.43,0.13,4.09c0.08,2.65,0.21,6.58,0.38,11.79
		c0,0.19,0.06,0.34,0.18,0.45s0.28,0.16,0.47,0.16h2.95c0.19,0,0.35-0.05,0.47-0.16s0.18-0.26,0.18-0.45
		c0.17-5.21,0.29-9.14,0.38-11.79c0.08-2.65,0.13-4.01,0.13-4.09c0-0.22-0.05-0.37-0.14-0.47c-0.1-0.1-0.24-0.14-0.43-0.14h-4.1
		C27.76,24.16,27.61,24.21,27.52,24.3z"/>
	<path d="M29.96,43.71c-0.82,0-1.48,0.26-2,0.79c-0.52,0.53-0.77,1.21-0.77,2.05c0,0.82,0.26,1.48,0.77,2s1.18,0.77,2,0.77
		c0.84,0,1.52-0.25,2.05-0.76c0.53-0.5,0.79-1.18,0.79-2.02s-0.26-1.52-0.79-2.05C31.49,43.97,30.8,43.71,29.96,43.71z"/>
</g>
</svg>
